ix/warning-2_bulk.svg

<svg viewBox="0 0 24 24" fill="none" xmlns="http://www.w3.org/2000/svg" height="1em" width="1em">
  <path opacity="0.4" d="M21.0802 8.58003V15.42C21.0802 16.54 20.4802 17.58 19.5102 18.15L13.5702 21.58C12.6002 22.14 11.4002 22.14 10.4202 21.58L4.48016 18.15C3.51016 17.59 2.91016 16.55 2.91016 15.42V8.58003C2.91016 7.46003 3.51016 6.41999 4.48016 5.84999L10.4202 2.42C11.3902 1.86 12.5902 1.86 13.5702 2.42L19.5102 5.84999C20.4802 6.41999 21.0802 7.45003 21.0802 8.58003Z" fill="#292D32"/>
  <path d="M12 13.75C11.59 13.75 11.25 13.41 11.25 13V7.75C11.25 7.34 11.59 7 12 7C12.41 7 12.75 7.34 12.75 7.75V13C12.75 13.41 12.41 13.75 12 13.75Z" fill="#292D32"/>
  <path d="M12 17.2499C11.87 17.2499 11.74 17.2198 11.62 17.1698C11.49 17.1198 11.39 17.0499 11.29 16.9599C11.2 16.8599 11.13 16.7499 11.07 16.6299C11.02 16.5099 11 16.3799 11 16.2499C11 15.9899 11.1 15.7298 11.29 15.5398C11.39 15.4498 11.49 15.3799 11.62 15.3299C11.99 15.1699 12.43 15.2598 12.71 15.5398C12.8 15.6398 12.87 15.7399 12.92 15.8699C12.97 15.9899 13 16.1199 13 16.2499C13 16.3799 12.97 16.5099 12.92 16.6299C12.87 16.7499 12.8 16.8599 12.71 16.9599C12.52 17.1499 12.27 17.2499 12 17.2499Z" fill="#292D32"/>
</svg>

<svg viewBox="0 0 24 24" fill="none" xmlns="http://www.w3.org/2000/svg" height="1em" width="1em">
  <path opacity=".4" d="M21.08 8.58v6.84c0 1.12-.6 2.16-1.57 2.73l-5.94 3.43c-.97.56-2.17.56-3.15 0l-5.94-3.43a3.15 3.15 0 0 1-1.57-2.73V8.58c0-1.12.6-2.16 1.57-2.73l5.94-3.43c.97-.56 2.17-.56 3.15 0l5.94 3.43c.97.57 1.57 1.6 1.57 2.73Z" fill="#292D32"/>
  <path d="M12 13.75c-.41 0-.75-.34-.75-.75V7.75c0-.41.34-.75.75-.75s.75.34.75.75V13c0 .41-.34.75-.75.75Zm0 3.5c-.13 0-.26-.03-.38-.08-.13-.05-.23-.12-.33-.21-.09-.1-.16-.21-.22-.33a.986.986 0 0 1-.07-.38c0-.26.1-.52.29-.71.1-.09.2-.16.33-.21.37-.16.81-.07 1.09.21.09.1.16.2.21.33.05.12.08.25.08.38s-.03.26-.08.38-.12.23-.21.33a.99.99 0 0 1-.71.29Z" fill="#292D32"/>
</svg>
